images/50644969.svg

<?xml version="1.0" encoding="UTF-8"?>
<svg xmlns="http://www.w3.org/2000/svg" xmlns:xlink="http://www.w3.org/1999/xlink" width="300pt" height="300pt" viewBox="0 0 300 300" version="1.1">
<defs>
<g>
<symbol overflow="visible" id="glyph0-0">
<path style="stroke:none;" d="M 0.640625 2.296875 L 0.640625 -9.171875 L 7.140625 -9.171875 L 7.140625 2.296875 Z M 1.375 1.578125 L 6.421875 1.578125 L 6.421875 -8.4375 L 1.375 -8.4375 Z M 1.375 1.578125 "/>
</symbol>
<symbol overflow="visible" id="glyph0-1">
<path style="stroke:none;" d="M 5.125 -8.609375 C 4.1875 -8.609375 3.441406 -8.257812 2.890625 -7.5625 C 2.347656 -6.875 2.078125 -5.929688 2.078125 -4.734375 C 2.078125 -3.535156 2.347656 -2.585938 2.890625 -1.890625 C 3.441406 -1.203125 4.1875 -0.859375 5.125 -0.859375 C 6.050781 -0.859375 6.785156 -1.203125 7.328125 -1.890625 C 7.878906 -2.585938 8.15625 -3.535156 8.15625 -4.734375 C 8.15625 -5.929688 7.878906 -6.875 7.328125 -7.5625 C 6.785156 -8.257812 6.050781 -8.609375 5.125 -8.609375 Z M 5.125 -9.65625 C 6.445312 -9.65625 7.503906 -9.207031 8.296875 -8.3125 C 9.097656 -7.414062 9.5 -6.222656 9.5 -4.734375 C 9.5 -3.234375 9.097656 -2.035156 8.296875 -1.140625 C 7.503906 -0.253906 6.445312 0.1875 5.125 0.1875 C 3.789062 0.1875 2.722656 -0.253906 1.921875 -1.140625 C 1.128906 -2.035156 0.734375 -3.234375 0.734375 -4.734375 C 0.734375 -6.222656 1.128906 -7.414062 1.921875 -8.3125 C 2.722656 -9.207031 3.789062 -9.65625 5.125 -9.65625 Z M 5.125 -9.65625 "/>
</symbol>
<symbol overflow="visible" id="glyph0-2">
<path style="stroke:none;" d="M 1.28125 -9.484375 L 3 -9.484375 L 7.203125 -1.546875 L 7.203125 -9.484375 L 8.453125 -9.484375 L 8.453125 0 L 6.71875 0 L 2.515625 -7.921875 L 2.515625 0 L 1.28125 0 Z M 1.28125 -9.484375 "/>
</symbol>
<symbol overflow="visible" id="glyph0-3">
<path style="stroke:none;" d="M 1.28125 -9.484375 L 2.5625 -9.484375 L 2.5625 -5.59375 L 7.21875 -5.59375 L 7.21875 -9.484375 L 8.5 -9.484375 L 8.5 0 L 7.21875 0 L 7.21875 -4.515625 L 2.5625 -4.515625 L 2.5625 0 L 1.28125 0 Z M 1.28125 -9.484375 "/>
</symbol>
</g>
</defs>
<g id="surface9933">
<rect x="0" y="0" width="300" height="300" style="fill:rgb(100%,100%,100%);fill-opacity:1;stroke:none;"/>
<path style="fill:none;stroke-width:1.2;stroke-linecap:butt;stroke-linejoin:miter;stroke:rgb(100%,0%,0%);stroke-opacity:1;stroke-miterlimit:10;" d="M 165.175781 211.332031 L 166.738281 227.25 "/>
<path style="fill:none;stroke-width:1.2;stroke-linecap:butt;stroke-linejoin:miter;stroke:rgb(0%,0%,0%);stroke-opacity:1;stroke-miterlimit:10;" d="M 166.738281 227.25 L 168.296875 243.167969 "/>
<path style="fill:none;stroke-width:1.2;stroke-linecap:butt;stroke-linejoin:miter;stroke:rgb(0%,0%,0%);stroke-opacity:1;stroke-miterlimit:10;" d="M 194.488281 198.53125 L 179.832031 204.933594 "/>
<path style="fill:none;stroke-width:1.2;stroke-linecap:butt;stroke-linejoin:miter;stroke:rgb(100%,0%,0%);stroke-opacity:1;stroke-miterlimit:10;" d="M 179.832031 204.933594 L 165.175781 211.332031 "/>
<path style=" stroke:none;fill-rule:nonzero;fill:rgb(100%,100%,100%);fill-opacity:1;" d="M 160.175781 203.332031 L 171.175781 203.332031 L 171.175781 219.332031 L 160.175781 219.332031 Z M 160.175781 203.332031 "/>
<g style="fill:rgb(100%,0%,0%);fill-opacity:1;">
  <use xlink:href="#glyph0-1" x="160.175781" y="215.708008"/>
</g>
<path style="fill:none;stroke-width:1.2;stroke-linecap:butt;stroke-linejoin:miter;stroke:rgb(0%,0%,0%);stroke-opacity:1;stroke-miterlimit:10;" d="M 168.296875 243.167969 L 199.535156 250.039062 "/>
<path style="fill:none;stroke-width:1.2;stroke-linecap:butt;stroke-linejoin:miter;stroke:rgb(0%,0%,0%);stroke-opacity:1;stroke-miterlimit:10;" d="M 173.035156 236.503906 L 198.027344 242 "/>
<path style="fill:none;stroke-width:1.2;stroke-linecap:butt;stroke-linejoin:miter;stroke:rgb(0%,0%,0%);stroke-opacity:1;stroke-miterlimit:10;" d="M 199.535156 250.039062 L 215.722656 222.453125 "/>
<path style="fill:none;stroke-width:1.2;stroke-linecap:butt;stroke-linejoin:miter;stroke:rgb(0%,0%,0%);stroke-opacity:1;stroke-miterlimit:10;" d="M 215.722656 222.453125 L 194.488281 198.53125 "/>
<path style="fill:none;stroke-width:1.2;stroke-linecap:butt;stroke-linejoin:miter;stroke:rgb(0%,0%,0%);stroke-opacity:1;stroke-miterlimit:10;" d="M 207.972656 225.054688 L 190.984375 205.917969 "/>
<path style="fill:none;stroke-width:1.2;stroke-linecap:butt;stroke-linejoin:miter;stroke:rgb(0%,0%,0%);stroke-opacity:1;stroke-miterlimit:10;" d="M 194.488281 198.53125 L 201.359375 167.289062 "/>
<path style="fill:none;stroke-width:1.2;stroke-linecap:butt;stroke-linejoin:miter;stroke:rgb(0%,0%,0%);stroke-opacity:1;stroke-miterlimit:10;" d="M 202.5 170.878906 L 217.742188 166.042969 "/>
<path style="fill:none;stroke-width:1.2;stroke-linecap:butt;stroke-linejoin:miter;stroke:rgb(100%,0%,0%);stroke-opacity:1;stroke-miterlimit:10;" d="M 217.742188 166.042969 L 232.988281 161.207031 "/>
<path style="fill:none;stroke-width:1.2;stroke-linecap:butt;stroke-linejoin:miter;stroke:rgb(0%,0%,0%);stroke-opacity:1;stroke-miterlimit:10;" d="M 200.222656 163.703125 L 215.46875 158.867188 "/>
<path style="fill:none;stroke-width:1.2;stroke-linecap:butt;stroke-linejoin:miter;stroke:rgb(100%,0%,0%);stroke-opacity:1;stroke-miterlimit:10;" d="M 215.46875 158.867188 L 230.714844 154.035156 "/>
<path style="fill:none;stroke-width:1.2;stroke-linecap:butt;stroke-linejoin:miter;stroke:rgb(0%,0%,0%);stroke-opacity:1;stroke-miterlimit:10;" d="M 201.359375 167.289062 L 189.550781 156.503906 "/>
<path style="fill:none;stroke-width:1.2;stroke-linecap:butt;stroke-linejoin:miter;stroke:rgb(0%,0%,100%);stroke-opacity:1;stroke-miterlimit:10;" d="M 189.550781 156.503906 L 177.742188 145.71875 "/>
<path style=" stroke:none;fill-rule:nonzero;fill:rgb(100%,100%,100%);fill-opacity:1;" d="M 226.851562 149.621094 L 237.851562 149.621094 L 237.851562 165.621094 L 226.851562 165.621094 Z M 226.851562 149.621094 "/>
<g style="fill:rgb(100%,0%,0%);fill-opacity:1;">
  <use xlink:href="#glyph0-1" x="226.851562" y="161.99707"/>
</g>
<path style="fill:none;stroke-width:1.2;stroke-linecap:butt;stroke-linejoin:miter;stroke:rgb(0%,0%,100%);stroke-opacity:1;stroke-miterlimit:10;" d="M 177.742188 145.71875 L 146.40625 152.148438 "/>
<path style="fill:none;stroke-width:1.2;stroke-linecap:butt;stroke-linejoin:miter;stroke:rgb(0%,0%,0%);stroke-opacity:1;stroke-miterlimit:10;" d="M 181.308594 113.933594 L 179.527344 129.828125 "/>
<path style="fill:none;stroke-width:1.2;stroke-linecap:butt;stroke-linejoin:miter;stroke:rgb(0%,0%,100%);stroke-opacity:1;stroke-miterlimit:10;" d="M 179.527344 129.828125 L 177.742188 145.71875 "/>
<path style=" stroke:none;fill-rule:nonzero;fill:rgb(100%,100%,100%);fill-opacity:1;" d="M 172.742188 137.71875 L 182.742188 137.71875 L 182.742188 153.71875 L 172.742188 153.71875 Z M 172.742188 137.71875 "/>
<g style="fill:rgb(0%,0%,100%);fill-opacity:1;">
  <use xlink:href="#glyph0-2" x="172.742188" y="150.094727"/>
</g>
<path style="fill:none;stroke-width:1.2;stroke-linecap:butt;stroke-linejoin:miter;stroke:rgb(0%,0%,100%);stroke-opacity:1;stroke-miterlimit:10;" d="M 146.40625 152.148438 L 138.507812 138.242188 "/>
<path style="fill:none;stroke-width:1.2;stroke-linecap:butt;stroke-linejoin:miter;stroke:rgb(0%,0%,0%);stroke-opacity:1;stroke-miterlimit:10;" d="M 138.507812 138.242188 L 130.609375 124.335938 "/>
<path style="fill:none;stroke-width:1.2;stroke-linecap:butt;stroke-linejoin:miter;stroke:rgb(0%,0%,100%);stroke-opacity:1;stroke-miterlimit:10;" d="M 151.371094 145.652344 L 145.054688 134.523438 "/>
<path style="fill:none;stroke-width:1.2;stroke-linecap:butt;stroke-linejoin:miter;stroke:rgb(0%,0%,0%);stroke-opacity:1;stroke-miterlimit:10;" d="M 145.054688 134.523438 L 138.734375 123.398438 "/>
<path style=" stroke:none;fill-rule:nonzero;fill:rgb(100%,100%,100%);fill-opacity:1;" d="M 141.40625 144.148438 L 151.40625 144.148438 L 151.40625 160.148438 L 141.40625 160.148438 Z M 141.40625 144.148438 "/>
<g style="fill:rgb(0%,0%,100%);fill-opacity:1;">
  <use xlink:href="#glyph0-2" x="141.40625" y="156.524414"/>
</g>
<path style="fill:none;stroke-width:1.2;stroke-linecap:butt;stroke-linejoin:miter;stroke:rgb(0%,0%,0%);stroke-opacity:1;stroke-miterlimit:10;" d="M 130.609375 124.335938 L 152.179688 100.714844 "/>
<path style="fill:none;stroke-width:1.2;stroke-linecap:butt;stroke-linejoin:miter;stroke:rgb(0%,0%,0%);stroke-opacity:1;stroke-miterlimit:10;" d="M 130.609375 124.335938 L 98.824219 120.765625 "/>
<path style="fill:none;stroke-width:1.2;stroke-linecap:butt;stroke-linejoin:miter;stroke:rgb(0%,0%,0%);stroke-opacity:1;stroke-miterlimit:10;" d="M 152.179688 100.714844 L 181.308594 113.933594 "/>
<path style="fill:none;stroke-width:1.2;stroke-linecap:butt;stroke-linejoin:miter;stroke:rgb(0%,0%,0%);stroke-opacity:1;stroke-miterlimit:10;" d="M 181.308594 113.933594 L 209.125 98.136719 "/>
<path style="fill:none;stroke-width:1.2;stroke-linecap:butt;stroke-linejoin:miter;stroke:rgb(0%,0%,0%);stroke-opacity:1;stroke-miterlimit:10;" d="M 209.125 98.136719 L 236.710938 114.324219 "/>
<path style="fill:none;stroke-width:1.2;stroke-linecap:butt;stroke-linejoin:miter;stroke:rgb(0%,0%,0%);stroke-opacity:1;stroke-miterlimit:10;" d="M 215.691406 93.261719 L 237.761719 106.214844 "/>
<path style="fill:none;stroke-width:1.2;stroke-linecap:butt;stroke-linejoin:miter;stroke:rgb(0%,0%,0%);stroke-opacity:1;stroke-miterlimit:10;" d="M 209.347656 66.148438 L 209.125 98.136719 "/>
<path style="fill:none;stroke-width:1.2;stroke-linecap:butt;stroke-linejoin:miter;stroke:rgb(0%,0%,0%);stroke-opacity:1;stroke-miterlimit:10;" d="M 236.710938 114.324219 L 264.523438 98.527344 "/>
<path style="fill:none;stroke-width:1.2;stroke-linecap:butt;stroke-linejoin:miter;stroke:rgb(0%,0%,0%);stroke-opacity:1;stroke-miterlimit:10;" d="M 264.523438 98.527344 L 264.75 66.539062 "/>
<path style="fill:none;stroke-width:1.2;stroke-linecap:butt;stroke-linejoin:miter;stroke:rgb(0%,0%,0%);stroke-opacity:1;stroke-miterlimit:10;" d="M 257.019531 95.273438 L 257.203125 69.6875 "/>
<path style="fill:none;stroke-width:1.2;stroke-linecap:butt;stroke-linejoin:miter;stroke:rgb(0%,0%,0%);stroke-opacity:1;stroke-miterlimit:10;" d="M 264.75 66.539062 L 237.164062 50.351562 "/>
<path style="fill:none;stroke-width:1.2;stroke-linecap:butt;stroke-linejoin:miter;stroke:rgb(0%,0%,0%);stroke-opacity:1;stroke-miterlimit:10;" d="M 237.164062 50.351562 L 209.347656 66.148438 "/>
<path style="fill:none;stroke-width:1.2;stroke-linecap:butt;stroke-linejoin:miter;stroke:rgb(0%,0%,0%);stroke-opacity:1;stroke-miterlimit:10;" d="M 238.097656 58.476562 L 215.847656 71.113281 "/>
<path style="fill:none;stroke-width:1.2;stroke-linecap:butt;stroke-linejoin:miter;stroke:rgb(0%,0%,0%);stroke-opacity:1;stroke-miterlimit:10;" d="M 209.347656 66.148438 L 195.554688 58.054688 "/>
<path style="fill:none;stroke-width:1.2;stroke-linecap:butt;stroke-linejoin:miter;stroke:rgb(100%,0%,0%);stroke-opacity:1;stroke-miterlimit:10;" d="M 195.554688 58.054688 L 181.761719 49.960938 "/>
<path style=" stroke:none;fill-rule:nonzero;fill:rgb(100%,100%,100%);fill-opacity:1;" d="M 160.761719 41.960938 L 181.761719 41.960938 L 181.761719 57.960938 L 160.761719 57.960938 Z M 160.761719 41.960938 "/>
<g style="fill:rgb(100%,0%,0%);fill-opacity:1;">
  <use xlink:href="#glyph0-3" x="160.761719" y="54.336914"/>
  <use xlink:href="#glyph0-1" x="170.78418" y="54.336914"/>
</g>
<path style="fill:none;stroke-width:1.2;stroke-linecap:butt;stroke-linejoin:miter;stroke:rgb(0%,0%,0%);stroke-opacity:1;stroke-miterlimit:10;" d="M 98.824219 120.765625 L 86.019531 91.457031 "/>
<path style="fill:none;stroke-width:1.2;stroke-linecap:butt;stroke-linejoin:miter;stroke:rgb(0%,0%,0%);stroke-opacity:1;stroke-miterlimit:10;" d="M 90.644531 120.847656 L 80.402344 97.398438 "/>
<path style="fill:none;stroke-width:1.2;stroke-linecap:butt;stroke-linejoin:miter;stroke:rgb(0%,0%,0%);stroke-opacity:1;stroke-miterlimit:10;" d="M 79.839844 146.511719 L 98.824219 120.765625 "/>
<path style="fill:none;stroke-width:1.2;stroke-linecap:butt;stroke-linejoin:miter;stroke:rgb(0%,0%,0%);stroke-opacity:1;stroke-miterlimit:10;" d="M 86.019531 91.457031 L 54.234375 87.886719 "/>
<path style="fill:none;stroke-width:1.2;stroke-linecap:butt;stroke-linejoin:miter;stroke:rgb(0%,0%,0%);stroke-opacity:1;stroke-miterlimit:10;" d="M 54.234375 87.886719 L 35.25 113.632812 "/>
<path style="fill:none;stroke-width:1.2;stroke-linecap:butt;stroke-linejoin:miter;stroke:rgb(0%,0%,0%);stroke-opacity:1;stroke-miterlimit:10;" d="M 58.394531 94.929688 L 43.207031 115.523438 "/>
<path style="fill:none;stroke-width:1.2;stroke-linecap:butt;stroke-linejoin:miter;stroke:rgb(0%,0%,0%);stroke-opacity:1;stroke-miterlimit:10;" d="M 35.25 113.632812 L 41.652344 128.289062 "/>
<path style="fill:none;stroke-width:1.2;stroke-linecap:butt;stroke-linejoin:miter;stroke:rgb(0%,0%,100%);stroke-opacity:1;stroke-miterlimit:10;" d="M 41.652344 128.289062 L 48.054688 142.945312 "/>
<path style="fill:none;stroke-width:1.2;stroke-linecap:butt;stroke-linejoin:miter;stroke:rgb(0%,0%,100%);stroke-opacity:1;stroke-miterlimit:10;" d="M 48.054688 142.945312 L 63.945312 144.726562 "/>
<path style="fill:none;stroke-width:1.2;stroke-linecap:butt;stroke-linejoin:miter;stroke:rgb(0%,0%,0%);stroke-opacity:1;stroke-miterlimit:10;" d="M 63.945312 144.726562 L 79.839844 146.511719 "/>
<path style="fill:none;stroke-width:1.2;stroke-linecap:butt;stroke-linejoin:miter;stroke:rgb(0%,0%,100%);stroke-opacity:1;stroke-miterlimit:10;" d="M 52.070312 135.820312 L 64.785156 137.25 "/>
<path style="fill:none;stroke-width:1.2;stroke-linecap:butt;stroke-linejoin:miter;stroke:rgb(0%,0%,0%);stroke-opacity:1;stroke-miterlimit:10;" d="M 64.785156 137.25 L 77.5 138.675781 "/>
<path style=" stroke:none;fill-rule:nonzero;fill:rgb(100%,100%,100%);fill-opacity:1;" d="M 43.054688 134.945312 L 53.054688 134.945312 L 53.054688 150.945312 L 43.054688 150.945312 Z M 43.054688 134.945312 "/>
<g style="fill:rgb(0%,0%,100%);fill-opacity:1;">
  <use xlink:href="#glyph0-2" x="43.054688" y="147.321289"/>
</g>
</g>
</svg>

<svg xmlns="http://www.w3.org/2000/svg" xmlns:xlink="http://www.w3.org/1999/xlink" width="300pt" height="300pt" viewBox="0 0 300 300"><defs><symbol overflow="visible"><path d="M.64 2.297v-11.47h6.5v11.47zm.735-.72h5.047V-8.436H1.375zm0 0"/></symbol><symbol overflow="visible" id="a"><path d="M5.125-8.61c-.938 0-1.684.352-2.234 1.047-.542.688-.812 1.633-.812 2.83 0 1.198.27 2.147.813 2.842.55.687 1.297 1.03 2.235 1.03.926 0 1.66-.343 2.203-1.03.55-.696.828-1.645.828-2.844 0-1.196-.277-2.14-.828-2.829-.543-.695-1.277-1.046-2.203-1.046zm0-1.046c1.32 0 2.38.45 3.172 1.344.8.898 1.203 2.09 1.203 3.578 0 1.5-.402 2.7-1.203 3.593C7.504-.255 6.445.186 5.125.186c-1.336 0-2.402-.44-3.203-1.328C1.13-2.036.734-3.235.734-4.735c0-1.49.395-2.68 1.188-3.579.8-.894 1.867-1.343 3.203-1.343zm0 0"/></symbol><symbol overflow="visible" id="b"><path d="M1.28-9.484H3l4.203 7.937v-7.937h1.25V0H6.72L2.515-7.922V0H1.28zm0 0"/></symbol><symbol overflow="visible" id="c"><path d="M1.28-9.484h1.282v3.89H7.22v-3.89H8.5V0H7.22v-4.516H2.562V0H1.28zm0 0"/></symbol></defs><g><path fill="#fff" d="M0 0h300v300H0z"/><path d="M165.176 211.332l1.562 15.918" stroke-width="1.2" stroke="#f00" stroke-miterlimit="10" fill="none"/><path d="M166.738 227.25l1.56 15.918M194.488 198.53l-14.656 6.404" stroke-width="1.2" stroke="#000" stroke-miterlimit="10" fill="none"/><path d="M179.832 204.934l-14.656 6.398" stroke-width="1.2" stroke="#f00" stroke-miterlimit="10" fill="none"/><path d="M160.176 203.332h11v16h-11zm0 0" fill="#fff"/><use xlink:href="#a" x="160.176" y="215.708" fill="#f00"/><path d="M168.297 243.168l31.238 6.87M173.035 236.504L198.027 242M199.535 250.04l16.188-27.587M215.723 222.453l-21.235-23.922M207.973 225.055l-16.99-19.137M194.488 198.53l6.87-31.24M202.5 170.88l15.242-4.837" stroke-width="1.2" stroke="#000" stroke-miterlimit="10" fill="none"/><path d="M217.742 166.043l15.246-4.836" stroke-width="1.2" stroke="#f00" stroke-miterlimit="10" fill="none"/><path d="M200.223 163.703l15.246-4.836" stroke-width="1.2" stroke="#000" stroke-miterlimit="10" fill="none"/><path d="M215.47 158.867l15.245-4.832" stroke-width="1.2" stroke="#f00" stroke-miterlimit="10" fill="none"/><path d="M201.36 167.29l-11.81-10.786" stroke-width="1.2" stroke="#000" stroke-miterlimit="10" fill="none"/><path d="M189.55 156.504l-11.808-10.785" stroke-width="1.2" stroke="#00f" stroke-miterlimit="10" fill="none"/><path d="M226.852 149.62h11v16h-11zm0 0" fill="#fff"/><use xlink:href="#a" x="226.852" y="161.997" fill="#f00"/><path d="M177.742 145.72l-31.336 6.428" stroke-width="1.2" stroke="#00f" stroke-miterlimit="10" fill="none"/><path d="M181.31 113.934l-1.783 15.894" stroke-width="1.2" stroke="#000" stroke-miterlimit="10" fill="none"/><path d="M179.527 129.828l-1.785 15.89" stroke-width="1.2" stroke="#00f" stroke-miterlimit="10" fill="none"/><path d="M172.742 137.72h10v16h-10zm0 0" fill="#fff"/><use xlink:href="#b" x="172.742" y="150.095" fill="#00f"/><path d="M146.406 152.148l-7.898-13.906" stroke-width="1.2" stroke="#00f" stroke-miterlimit="10" fill="none"/><path d="M138.508 138.242l-7.9-13.906" stroke-width="1.2" stroke="#000" stroke-miterlimit="10" fill="none"/><path d="M151.37 145.652l-6.315-11.13" stroke-width="1.2" stroke="#00f" stroke-miterlimit="10" fill="none"/><path d="M145.055 134.523l-6.32-11.125" stroke-width="1.2" stroke="#000" stroke-miterlimit="10" fill="none"/><path d="M141.406 144.148h10v16h-10zm0 0" fill="#fff"/><use xlink:href="#b" x="141.406" y="156.524" fill="#00f"/><path d="M130.61 124.336l21.57-23.62M130.61 124.336l-31.786-3.57M152.18 100.715l29.13 13.22M181.31 113.934l27.815-15.797M209.125 98.137l27.586 16.187M215.69 93.262l22.072 12.953M209.348 66.148l-.223 31.99M236.71 114.324l27.813-15.797M264.523 98.527l.227-31.988M257.02 95.273l.183-25.585M264.75 66.54L237.164 50.35M237.164 50.352l-27.816 15.796M238.098 58.477l-22.25 12.636M209.348 66.148l-13.793-8.093" stroke-width="1.2" stroke="#000" stroke-miterlimit="10" fill="none"/><path d="M195.555 58.055l-13.793-8.094" stroke-width="1.2" stroke="#f00" stroke-miterlimit="10" fill="none"/><path d="M160.762 41.96h21v16h-21zm0 0" fill="#fff"/><g fill="#f00"><use xlink:href="#c" x="160.762" y="54.337"/><use xlink:href="#a" x="170.784" y="54.337"/></g><path d="M98.824 120.766L86.02 91.456M90.645 120.848l-10.243-23.45M79.84 146.512l18.984-25.746M86.02 91.457l-31.786-3.57M54.234 87.887L35.25 113.633M58.395 94.93l-15.188 20.593M35.25 113.633l6.402 14.656" stroke-width="1.2" stroke="#000" stroke-miterlimit="10" fill="none"/><path d="M41.652 128.29l6.403 14.655M48.055 142.945l15.89 1.782" stroke-width="1.2" stroke="#00f" stroke-miterlimit="10" fill="none"/><path d="M63.945 144.727l15.895 1.785" stroke-width="1.2" stroke="#000" stroke-miterlimit="10" fill="none"/><path d="M52.07 135.82l12.715 1.43" stroke-width="1.2" stroke="#00f" stroke-miterlimit="10" fill="none"/><path d="M64.785 137.25l12.715 1.426" stroke-width="1.2" stroke="#000" stroke-miterlimit="10" fill="none"/><path d="M43.055 134.945h10v16h-10zm0 0" fill="#fff"/><use xlink:href="#b" x="43.055" y="147.321" fill="#00f"/></g></svg>
